austria/municipalities/20909.svg

<svg xmlns="http://www.w3.org/2000/svg" width="850" height="850" style="shape-rendering:geometricPrecision;text-rendering:geometricPrecision;image-rendering:optimizeQuality;fill-rule:evenodd;clip-rule:evenodd"><path style="opacity:1" fill="#c8c7c7" d="M837.5 17.5v-6h-826v4c-.951-1.419-1.284-3.085-1-5h828c.302 2.56-.032 4.893-1 7z"/><path style="opacity:1" fill="#262223" d="M837.5 17.5a61428.695 61428.695 0 0 1-33.5 476C788.827 618.119 728.994 714.286 624.5 782c-92.919 55.096-191.919 69.763-297 44C224.147 796.951 145.647 736.118 92 643.5c-24.358-44.74-39.691-92.407-46-143a46084.756 46084.756 0 0 1-34.5-485v-4h826v6z"/><path style="opacity:1" fill="#164664" d="M424.5 28.5h395c.295 2.235-.039 4.235-1 6v-5h-393v31h-1v-32z"/><path style="opacity:1" fill="#fcb713" d="M424.5 28.5v32c-30.335-.167-60.668 0-91 .5a610.571 610.571 0 0 0-21 58.5c-30.668-.167-61.335 0-92 .5-10.797 3.134-16.964 10.3-18.5 21.5-2.502 9.481-.002 17.315 7.5 23.5a22.981 22.981 0 0 0 5 2c8.66.5 17.327.666 26 .5a687.286 687.286 0 0 0 18.5 133c8.106 34.711 25.273 63.878 51.5 87.5a195.48 195.48 0 0 0 28 16.5 183.078 183.078 0 0 1 1 27c-30.668-.167-61.335 0-92 .5-1.964 1.451-3.297 3.284-4 5.5-.995 11.488-1.328 23.155-1 35h-181a173801.368 173801.368 0 0 1-31-444h394z"/><path style="opacity:1" fill="#0065a5" d="M818.5 34.5a338360.583 338360.583 0 0 1-31 438h-181c.328-11.845-.005-23.512-1-35-.754-2.591-2.421-4.424-5-5.5-30.332-.5-60.665-.667-91-.5a183.078 183.078 0 0 1 1-27c26.746-11.58 46.913-30.247 60.5-56 12.859-24.91 21.525-51.243 26-79a854.477 854.477 0 0 0 11.5-102c9.733.391 19.4-.109 29-1.5 8.847-5.875 12.014-14.042 9.5-24.5-3.08-16.144-12.913-23.477-29.5-22l-73-2 22-57h-141v-31h393v5z"/><path style="opacity:1" fill="#00a54f" d="M535.5 118.5a5726.348 5726.348 0 0 1-214-2 659.563 659.563 0 0 1 17-47 7848.951 7848.951 0 0 1 217-.5 1501.926 1501.926 0 0 0-20 49.5z"/><path style="opacity:1" fill="#126338" d="M321.5 116.5a5726.348 5726.348 0 0 0 214 2 11554.83 11554.83 0 0 1-215 1c-.237-1.291.096-2.291 1-3z"/><path style="opacity:1" fill="#114363" d="m544.5 117.5 73 2c-24.676.333-49.342 0-74-1 .124-.607.457-.94 1-1z"/><path style="opacity:1" fill="#0065a5" d="M226.5 126.5h193c-.331 30.505.002 60.838 1 91v255h-170v-33c32.171.332 64.171-.002 96-1v-39c-18.012-6.433-33.512-16.766-46.5-31-13.695-17.048-24.028-36.048-31-57-13.059-49.467-20.226-99.8-21.5-151-11.005.167-22.005 0-33-.5-4.672-3.015-6.672-7.348-6-13-.131-12.362 5.869-19.195 18-20.5z"/><path style="opacity:1" fill="#173b55" d="M226.5 126.5a9413.819 9413.819 0 0 1 194-1v92a2071.736 2071.736 0 0 1-1-91h-193z"/><path style="opacity:1" fill="#7a5c1c" d="M622.5 126.5h-193c.332 37.504-.002 74.837-1 112v-113c64.835-.332 129.502.001 194 1z"/><path style="opacity:1" fill="#fcb713" d="M622.5 126.5c12.131 1.305 18.131 8.138 18 20.5.672 5.652-1.328 9.985-6 13-10.995.5-21.995.667-33 .5a735.79 735.79 0 0 1-16.5 133c-6.315 27.293-17.982 51.96-35 74-13.122 14.802-28.955 25.469-47.5 32v39h96v34h-170v-234a3137.289 3137.289 0 0 0 1-112h193z"/><path style="opacity:1" fill="#bf8c17" d="M243.5 437.5v36a8284.568 8284.568 0 0 1-182-1h181c-.328-11.845.005-23.512 1-35z"/><path style="opacity:1" fill="#0a5281" d="M346.5 438.5a2304.214 2304.214 0 0 1-96 1v33h170a7312.816 7312.816 0 0 1-171 1v-35h97z"/><path style="opacity:1" fill="#be8c17" d="M598.5 438.5c.995 11.488 1.328 23.155 1 35a7312.816 7312.816 0 0 1-171-1h170v-34z"/><path style="opacity:1" fill="#0b5180" d="M605.5 437.5c.995 11.488 1.328 23.155 1 35h181a8284.568 8284.568 0 0 1-182 1v-36z"/><path style="opacity:1" fill="#5a451d" d="M786.5 485.5v-5h-724v4c-.951-1.419-1.285-3.085-1-5h726c.295 2.235-.039 4.235-1 6z"/><path style="opacity:1" fill="#ecac15" d="M786.5 485.5c-120.5.667-241.166 1-362 1-121.002 0-241.669-.667-362-2v-4h724v5z"/><path style="opacity:1" fill="#0065a4" d="M63.5 492.5h722a384.585 384.585 0 0 1-7.5 47 37.714 37.714 0 0 1-3.5 8 555.759 555.759 0 0 1-87 22.5c-59.595 3.098-118.595-1.569-177-14-87.392-23.715-176.392-34.382-267-32-57.066 5.079-113.066 15.579-168 31.5a437.752 437.752 0 0 1-12-63z"/><path style="opacity:1" fill="#fcfcfc" d="M248.5 530.5c68.644-.769 136.644 5.398 204 18.5a851.328 851.328 0 0 0 154 28 518.226 518.226 0 0 0 90-1 743.084 743.084 0 0 0 75.5-20.5l1.5 1a365.555 365.555 0 0 1-13 35 394.64 394.64 0 0 1-63 14.5c-46.272 3.091-92.272.758-138-7a2207.106 2207.106 0 0 0-184-31c-62.614-7.731-125.281-8.398-188-2A542.472 542.472 0 0 0 89 590.5c-5.363-8.917-8.863-18.583-10.5-29 55.78-15.785 112.446-26.119 170-31z"/><path style="opacity:1" fill="#0065a5" d="M232.5 568.5c38.724-.661 77.39.506 116 3.5a3014.733 3014.733 0 0 1 94 12 22834.012 22834.012 0 0 0 131 24c47.937 7.672 95.937 8.338 144 2a2640.117 2640.117 0 0 1 40-10.5c-14.096 35.546-33.763 67.546-59 96a327.223 327.223 0 0 1-44 4.5 881.973 881.973 0 0 1-125-4 1664.896 1664.896 0 0 1-122-21c-48.859-7.446-97.859-8.446-147-3a948.005 948.005 0 0 0-107 19 12.494 12.494 0 0 1-7 0c-23.647-28.446-42.313-59.946-56-94.5 46.189-15.683 93.523-25.016 142-28z"/><path style="opacity:1" fill="#fdfdfd" d="M295.5 675.5c29.408-.556 58.742.61 88 3.5 36.983 6.325 73.983 12.658 111 19 64.687 11.14 129.687 13.474 195 7a406.402 406.402 0 0 1-43 40 889.823 889.823 0 0 1-164-8 2871.722 2871.722 0 0 0-104-18c-66.354-7.708-132.354-5.542-198 6.5a218.256 218.256 0 0 1-28-27.5c47.171-11.351 94.838-18.851 143-22.5z"/><path style="opacity:1" fill="#0065a5" d="M268.5 720.5a725.256 725.256 0 0 1 142 8.5c73.7 16.781 148.367 24.781 224 24-78.885 55.118-166.218 76.451-262 64-70.462-10.905-132.462-39.572-186-86l1-1a773.598 773.598 0 0 1 81-9.5z"/></svg>

<?xml version="1.0" encoding="UTF-8"?>
<!DOCTYPE svg PUBLIC "-//W3C//DTD SVG 1.1//EN" "http://www.w3.org/Graphics/SVG/1.1/DTD/svg11.dtd">
<svg xmlns="http://www.w3.org/2000/svg" version="1.1" width="850px" height="850px" style="shape-rendering:geometricPrecision; text-rendering:geometricPrecision; image-rendering:optimizeQuality; fill-rule:evenodd; clip-rule:evenodd" xmlns:xlink="http://www.w3.org/1999/xlink">
<g><path style="opacity:1" fill="#c8c7c7" d="M 837.5,17.5 C 837.5,15.5 837.5,13.5 837.5,11.5C 562.167,11.5 286.833,11.5 11.5,11.5C 11.5,12.8333 11.5,14.1667 11.5,15.5C 10.5489,14.0813 10.2155,12.4147 10.5,10.5C 286.5,10.5 562.5,10.5 838.5,10.5C 838.802,13.0593 838.468,15.3926 837.5,17.5 Z"/></g>
<g><path style="opacity:1" fill="#262223" d="M 837.5,17.5 C 826.95,176.207 815.783,334.873 804,493.5C 788.827,618.119 728.994,714.286 624.5,782C 531.581,837.096 432.581,851.763 327.5,826C 224.147,796.951 145.647,736.118 92,643.5C 67.6424,598.76 52.309,551.093 46,500.5C 33.6471,338.893 22.1471,177.227 11.5,15.5C 11.5,14.1667 11.5,12.8333 11.5,11.5C 286.833,11.5 562.167,11.5 837.5,11.5C 837.5,13.5 837.5,15.5 837.5,17.5 Z"/></g>
<g><path style="opacity:1" fill="#164664" d="M 424.5,28.5 C 556.167,28.5 687.833,28.5 819.5,28.5C 819.795,30.7354 819.461,32.7354 818.5,34.5C 818.5,32.8333 818.5,31.1667 818.5,29.5C 687.5,29.5 556.5,29.5 425.5,29.5C 425.5,39.8333 425.5,50.1667 425.5,60.5C 425.167,60.5 424.833,60.5 424.5,60.5C 424.5,49.8333 424.5,39.1667 424.5,28.5 Z"/></g>
<g><path style="opacity:1" fill="#fcb713" d="M 424.5,28.5 C 424.5,39.1667 424.5,49.8333 424.5,60.5C 394.165,60.3334 363.832,60.5 333.5,61C 325.501,80.1597 318.501,99.6597 312.5,119.5C 281.832,119.333 251.165,119.5 220.5,120C 209.703,123.134 203.536,130.3 202,141.5C 199.498,150.981 201.998,158.815 209.5,165C 211.087,165.862 212.754,166.529 214.5,167C 223.16,167.5 231.827,167.666 240.5,167.5C 242.327,212.45 248.494,256.783 259,300.5C 267.106,335.211 284.273,364.378 310.5,388C 319.339,394.256 328.673,399.756 338.5,404.5C 339.498,413.475 339.832,422.475 339.5,431.5C 308.832,431.333 278.165,431.5 247.5,432C 245.536,433.451 244.203,435.284 243.5,437.5C 242.505,448.988 242.172,460.655 242.5,472.5C 182.167,472.5 121.833,472.5 61.5,472.5C 50.9772,324.514 40.6439,176.514 30.5,28.5C 161.833,28.5 293.167,28.5 424.5,28.5 Z"/></g>
<g><path style="opacity:1" fill="#0065a5" d="M 818.5,34.5 C 808.261,180.51 797.928,326.51 787.5,472.5C 727.167,472.5 666.833,472.5 606.5,472.5C 606.828,460.655 606.495,448.988 605.5,437.5C 604.746,434.909 603.079,433.076 600.5,432C 570.168,431.5 539.835,431.333 509.5,431.5C 509.168,422.475 509.502,413.475 510.5,404.5C 537.246,392.92 557.413,374.253 571,348.5C 583.859,323.59 592.525,297.257 597,269.5C 602.877,235.735 606.71,201.735 608.5,167.5C 618.233,167.891 627.9,167.391 637.5,166C 646.347,160.125 649.514,151.958 647,141.5C 643.92,125.356 634.087,118.023 617.5,119.5C 593.167,118.833 568.833,118.167 544.5,117.5C 551.833,98.5 559.167,79.5 566.5,60.5C 519.5,60.5 472.5,60.5 425.5,60.5C 425.5,50.1667 425.5,39.8333 425.5,29.5C 556.5,29.5 687.5,29.5 818.5,29.5C 818.5,31.1667 818.5,32.8333 818.5,34.5 Z"/></g>
<g><path style="opacity:1" fill="#00a54f" d="M 535.5,118.5 C 463.826,119.163 392.492,118.497 321.5,116.5C 326.565,100.64 332.232,84.973 338.5,69.5C 410.831,68.3334 483.164,68.1667 555.5,69C 548.538,85.387 541.871,101.887 535.5,118.5 Z"/></g>
<g><path style="opacity:1" fill="#126338" d="M 321.5,116.5 C 392.492,118.497 463.826,119.163 535.5,118.5C 464.002,119.499 392.335,119.833 320.5,119.5C 320.263,118.209 320.596,117.209 321.5,116.5 Z"/></g>
<g><path style="opacity:1" fill="#114363" d="M 544.5,117.5 C 568.833,118.167 593.167,118.833 617.5,119.5C 592.824,119.833 568.158,119.5 543.5,118.5C 543.624,117.893 543.957,117.56 544.5,117.5 Z"/></g>
<g><path style="opacity:1" fill="#0065a5" d="M 226.5,126.5 C 290.833,126.5 355.167,126.5 419.5,126.5C 419.169,157.005 419.502,187.338 420.5,217.5C 420.5,302.5 420.5,387.5 420.5,472.5C 363.833,472.5 307.167,472.5 250.5,472.5C 250.5,461.5 250.5,450.5 250.5,439.5C 282.671,439.832 314.671,439.498 346.5,438.5C 346.5,425.5 346.5,412.5 346.5,399.5C 328.488,393.067 312.988,382.734 300,368.5C 286.305,351.452 275.972,332.452 269,311.5C 255.941,262.033 248.774,211.7 247.5,160.5C 236.495,160.667 225.495,160.5 214.5,160C 209.828,156.985 207.828,152.652 208.5,147C 208.369,134.638 214.369,127.805 226.5,126.5 Z"/></g>
<g><path style="opacity:1" fill="#173b55" d="M 226.5,126.5 C 290.998,125.501 355.665,125.168 420.5,125.5C 420.5,156.167 420.5,186.833 420.5,217.5C 419.502,187.338 419.169,157.005 419.5,126.5C 355.167,126.5 290.833,126.5 226.5,126.5 Z"/></g>
<g><path style="opacity:1" fill="#7a5c1c" d="M 622.5,126.5 C 558.167,126.5 493.833,126.5 429.5,126.5C 429.832,164.004 429.498,201.337 428.5,238.5C 428.5,200.833 428.5,163.167 428.5,125.5C 493.335,125.168 558.002,125.501 622.5,126.5 Z"/></g>
<g><path style="opacity:1" fill="#fcb713" d="M 622.5,126.5 C 634.631,127.805 640.631,134.638 640.5,147C 641.172,152.652 639.172,156.985 634.5,160C 623.505,160.5 612.505,160.667 601.5,160.5C 600.044,205.351 594.544,249.684 585,293.5C 578.685,320.793 567.018,345.46 550,367.5C 536.878,382.302 521.045,392.969 502.5,399.5C 502.5,412.5 502.5,425.5 502.5,438.5C 534.5,438.5 566.5,438.5 598.5,438.5C 598.5,449.833 598.5,461.167 598.5,472.5C 541.833,472.5 485.167,472.5 428.5,472.5C 428.5,394.5 428.5,316.5 428.5,238.5C 429.498,201.337 429.832,164.004 429.5,126.5C 493.833,126.5 558.167,126.5 622.5,126.5 Z"/></g>
<g><path style="opacity:1" fill="#bf8c17" d="M 243.5,437.5 C 243.5,449.5 243.5,461.5 243.5,473.5C 182.664,473.832 121.998,473.499 61.5,472.5C 121.833,472.5 182.167,472.5 242.5,472.5C 242.172,460.655 242.505,448.988 243.5,437.5 Z"/></g>
<g><path style="opacity:1" fill="#0a5281" d="M 346.5,438.5 C 314.671,439.498 282.671,439.832 250.5,439.5C 250.5,450.5 250.5,461.5 250.5,472.5C 307.167,472.5 363.833,472.5 420.5,472.5C 363.669,473.499 306.669,473.832 249.5,473.5C 249.5,461.833 249.5,450.167 249.5,438.5C 281.833,438.5 314.167,438.5 346.5,438.5 Z"/></g>
<g><path style="opacity:1" fill="#be8c17" d="M 598.5,438.5 C 599.495,449.988 599.828,461.655 599.5,473.5C 542.331,473.832 485.331,473.499 428.5,472.5C 485.167,472.5 541.833,472.5 598.5,472.5C 598.5,461.167 598.5,449.833 598.5,438.5 Z"/></g>
<g><path style="opacity:1" fill="#0b5180" d="M 605.5,437.5 C 606.495,448.988 606.828,460.655 606.5,472.5C 666.833,472.5 727.167,472.5 787.5,472.5C 727.002,473.499 666.336,473.832 605.5,473.5C 605.5,461.5 605.5,449.5 605.5,437.5 Z"/></g>
<g><path style="opacity:1" fill="#5a451d" d="M 786.5,485.5 C 786.5,483.833 786.5,482.167 786.5,480.5C 545.167,480.5 303.833,480.5 62.5,480.5C 62.5,481.833 62.5,483.167 62.5,484.5C 61.5489,483.081 61.2155,481.415 61.5,479.5C 303.5,479.5 545.5,479.5 787.5,479.5C 787.795,481.735 787.461,483.735 786.5,485.5 Z"/></g>
<g><path style="opacity:1" fill="#ecac15" d="M 786.5,485.5 C 666,486.167 545.334,486.5 424.5,486.5C 303.498,486.5 182.831,485.833 62.5,484.5C 62.5,483.167 62.5,481.833 62.5,480.5C 303.833,480.5 545.167,480.5 786.5,480.5C 786.5,482.167 786.5,483.833 786.5,485.5 Z"/></g>
<g><path style="opacity:1" fill="#0065a4" d="M 63.5,492.5 C 304.167,492.5 544.833,492.5 785.5,492.5C 783.972,508.311 781.472,523.978 778,539.5C 777.131,542.33 775.964,544.997 774.5,547.5C 746.105,557.349 717.105,564.849 687.5,570C 627.905,573.098 568.905,568.431 510.5,556C 423.108,532.285 334.108,521.618 243.5,524C 186.434,529.079 130.434,539.579 75.5,555.5C 69.9687,534.841 65.9687,513.841 63.5,492.5 Z"/></g>
<g><path style="opacity:1" fill="#fcfcfc" d="M 248.5,530.5 C 317.144,529.731 385.144,535.898 452.5,549C 502.943,563.057 554.276,572.39 606.5,577C 636.541,579.277 666.541,578.943 696.5,576C 722.002,570.499 747.168,563.666 772,555.5C 772.5,555.833 773,556.167 773.5,556.5C 769.747,568.432 765.413,580.098 760.5,591.5C 739.931,598.048 718.931,602.882 697.5,606C 651.228,609.091 605.228,606.758 559.5,599C 498.62,586.076 437.287,575.742 375.5,568C 312.886,560.269 250.219,559.602 187.5,566C 153.903,571.088 121.07,579.254 89,590.5C 83.637,581.583 80.137,571.917 78.5,561.5C 134.28,545.715 190.946,535.381 248.5,530.5 Z"/></g>
<g><path style="opacity:1" fill="#0065a5" d="M 232.5,568.5 C 271.224,567.839 309.89,569.006 348.5,572C 379.908,575.509 411.241,579.509 442.5,584C 486.114,592.122 529.781,600.122 573.5,608C 621.437,615.672 669.437,616.338 717.5,610C 730.823,606.391 744.157,602.891 757.5,599.5C 743.404,635.046 723.737,667.046 698.5,695.5C 683.958,697.99 669.291,699.49 654.5,700C 612.726,701.624 571.06,700.291 529.5,696C 488.547,690.508 447.881,683.508 407.5,675C 358.641,667.554 309.641,666.554 260.5,672C 224.428,676.295 188.761,682.628 153.5,691C 151.167,691.667 148.833,691.667 146.5,691C 122.853,662.554 104.187,631.054 90.5,596.5C 136.689,580.817 184.023,571.484 232.5,568.5 Z"/></g>
<g><path style="opacity:1" fill="#fdfdfd" d="M 295.5,675.5 C 324.908,674.944 354.242,676.11 383.5,679C 420.483,685.325 457.483,691.658 494.5,698C 559.187,709.14 624.187,711.474 689.5,705C 676.122,719.379 661.789,732.712 646.5,745C 591.608,747.389 536.941,744.722 482.5,737C 447.956,730.365 413.289,724.365 378.5,719C 312.146,711.292 246.146,713.458 180.5,725.5C 170.351,717.184 161.017,708.017 152.5,698C 199.671,686.649 247.338,679.149 295.5,675.5 Z"/></g>
<g><path style="opacity:1" fill="#0065a5" d="M 268.5,720.5 C 316.125,718.681 363.458,721.514 410.5,729C 484.2,745.781 558.867,753.781 634.5,753C 555.615,808.118 468.282,829.451 372.5,817C 302.038,806.095 240.038,777.428 186.5,731C 186.833,730.667 187.167,730.333 187.5,730C 214.472,725.393 241.472,722.226 268.5,720.5 Z"/></g>
</svg>
